X:3546
T:Crooked Reel, The
R:reel
D:Sully & John Keenan: Dublin Banjos
Z:id:hn-reel-298
M:C|
K:Ador
AcBc AE~E2|GABd edBd|eaag ~e3d|c2Bc AE~E2|
AcBc AE~E2|GABd edBd|eaag (3efg ed|1 cABG A2AG:|2 cABG A2eg||
|:~a3g ed (3efg|edBA GABd|g2fa gedB|cABG AE~E2|
~a3g ed (3efg|edBA GABd|g2fa gedB|1 cABG A2eg:|2 cABG A2AG||


